X:11
T:Steyrer Tanz in F, nr. 9
C:traditionell
R:Steirer
A:Hallstatt, Salzkammergut
B:Corpus Musicae Popularis Austriacae (COMPA), 5.Band: J.M.Schmalnauer " Tanz Musik", Verlag Boehlau, Wien 1996
S:manuscript des Johann Michael Schmalnauer um 1820
N:im der quelle in F
N:um1800
M:3/4
L:1/8
K:F
V:1
AF |\
EGBGBd | Ac BAGF | F2 EG,CE | EG F2 AF |\
EGBGBd | Ac BAGF | F2 EG,CE | F4 :|
V:2
